X:0400
T:Good Night and Joy be wi' you all.
M:C
L:1/8
Q:1/4=120
I: :: ::
Z:Jack Campin * www.campin.me.uk * 2009
K:B Minor
fe|d2d2     A3  d|B2B2     b3   a|faba faba|f2d2 d2:|
zf|edef     e2TdB|ABde {de}f2 Ted|e3 f gfga|b2e2 e3f|
   gfga {ga}b2 ag|fefg {fg}a2 Tgf|efab afef|d2B2 B2:|
<end>
<start>
